icons/glyphs/glyph-pound.svg

<?xml version="1.0" encoding="UTF-8" standalone="no"?><svg height="16" viewBox="0 0 4.2333332 4.2333335" width="16" xmlns="http://www.w3.org/2000/svg"><sodipodi:namedview/><metadata><rdf:RDF><cc:Work><dc:format>image/svg+xml</dc:format><dc:type/><dc:title/></cc:Work></rdf:RDF></metadata><path d="m .70555562.00000012v.70555549h-.7055556v.70555549h.7055556v1.4111111h-.7055556v.7055556h.7055556v.7055554h.70555548v-.7055554h1.4111112v.7055554h.7055554v-.7055554h.7055556v-.7055556h-.7055556v-1.4111111h.7055556v-.70555549h-.7055556v-.70555549h-.7055554v.70555549h-1.4111112v-.70555549zm.70555548 1.41111098h1.4111112v1.4111111h-1.4111112z" fill="#d0d0d0"/></svg>

<?xml version="1.0" encoding="UTF-8" standalone="no"?>
<svg height="16" viewBox="0 0 4.2333332 4.2333332" width="16" xmlns="http://www.w3.org/2000/svg">
	<sodipodi:namedview/>
	<metadata>
		<rdf:RDF>
			<cc:Work>
				<dc:format>image/svg+xml			</dc:format>
			<dc:type/>
			<dc:title/>
		</cc:Work>
	</rdf:RDF>
</metadata>
<path d="M 0 0 H 4.2333332 V 4.2333332 H 0 Z" fill="none" stroke-linecap="round" stroke-width=".25455"/>
<path d="m .70555555 .00000005 v .7055555 H -.00000005 V 1.4111111 h .7055556 v 1.411111 H -.00000005 v .7055556 h .7055556 V 4.2333331 H 1.4111111 V 3.5277777 H 2.8222222 V 4.2333331 H 3.5277777 V 3.5277777 H 4.2333332 V 2.8222221 H 3.5277777 V 1.4111111 H 4.2333332 V .70555555 H 3.5277777 V .00000005 H 2.8222222 v .7055555 H 1.4111111 V .00000005 Z M 1.4111111 1.4111111 h 1.411111 v 1.411111 h -1.411111 z" fill="#d0d0d0"/>
</svg>
